X:38
T:The Cancellation
M:6/8
L:1/8
R:Jig
C:Gris Sanderson
Q:400
N:I went to hear Martyn Bennett (bless his soul) at a gig in 
N:Lorient in Brittany once but he'd had to cancel it, so I 
N:went to a different one and spent the evening doing Breton 
N:dancing, which was also fun. This was a jig for Martyn.
K:Em
E2e edA|BAB dBG|A2a ged|ede age|E2e edA|BAB edB|ABd e2d|
~B3 AFD|E2e edA|BAB dBG|A2a ged|1ede age|E2e edA|BAB edB|
ABd e2d|~B3 AFD:|2ede a2e|gag fgf|efe BAB|GAB deA|~B3 AFD||
A,EA G2G,|A,EA GA,E|GA,F EA,E|GA,F E2A,|B,2B AFA|
BdB AFA|~B3 fdB|^cec BAB|cec _BGB|cec _BGB|
g=fe c_BG|=FEC_B,2C|DAdc2C|DAd cDA|cDB ADA|cB_B AGF||
